X: 1730
T: Mr Ivery's Reel
B: australian traditional tunes wiki
M:4/4
L:1/8
R: Reel
Q: 1/4=100
K:G
V:1 
"G"GDB,D G,B,DG|Bc/B/ ABG2FG|"D"AFEF ABcA|"A7"BGGE"D"D2DD|
"G"GDB,D G,B,DG|BdcB"D"A2FG|Ad^cB "A7"AGFE|"D"D2d2d2dd||
"D"AFDF "D7"ABcA|"G"BdcB "D"A2Bc|"D"decd "A7"BcA^c|dBAF"D"D2D2|
"G"GDB,D G,B,DG|"C"BcBA "D7"Bcd2|"Am"eEFG "D7"ABcA|"G"G2G2G2z2:|
% abcbook-tune_id 6342d53aaa82d9082d5891c7


% abcbook-boost 0
% abcbook-tablature 
% abcbook-transpose 
% abcbook-lastupdated 1665324380496
% abcbook-soundfonts 
% abcbook-repeats 1
% NFF Book 2017

